app/assets/images/heroicon/mini/hand-thumb-down.svg

<svg width="20" height="20" viewBox="0 0 20 20" fill="none" xmlns="http://www.w3.org/2000/svg">
<path d="M18.905 11.75C18.905 12.4404 18.3454 13 17.655 13C16.9647 13 16.405 12.4404 16.405 11.75L16.405 4.25C16.405 3.55964 16.9647 3 17.655 3C18.3454 3 18.905 3.55964 18.905 4.25L18.905 11.75Z" fill="#0F172A"/>
<path d="M8.90503 16L8.90503 17.2998C8.90503 17.5676 8.76529 17.8259 8.51009 17.9068C8.31921 17.9674 8.11593 18 7.90503 18C6.80046 18 5.90503 17.1046 5.90503 16C5.90503 15.005 6.08669 14.0524 6.41866 13.1735C6.62278 12.6332 6.25262 12 5.67499 12L3.15503 12C1.91239 12 0.893941 10.9904 1.00882 9.75311C1.20192 7.67339 1.66037 5.67064 2.35 3.77906C2.75159 2.67752 3.83273 2 5.00519 2L8.19683 2C8.66256 2 9.1219 2.10843 9.53847 2.31672L12.2716 3.68328C12.6882 3.89156 13.1475 4 13.6132 4L14.905 4L14.905 11L13.9418 11C13.2574 11 12.684 11.4825 12.3296 12.0681C11.8412 12.8752 11.0754 13.4958 10.1644 13.7977C9.73164 13.9412 9.31081 14.184 9.15255 14.6116C8.99247 15.0441 8.90503 15.5119 8.90503 16Z" fill="#0F172A"/>
</svg>

<svg xmlns="http://www.w3.org/2000/svg" viewBox="0 0 20 20" fill="currentColor" aria-hidden="true">
  <path d="M18.905 11.75a1.25 1.25 0 11-2.5 0v-7.5a1.25 1.25 0 012.5 0v7.5zM8.905 16v1.3c0 .268-.14.526-.395.607A2 2 0 015.905 16c0-.995.182-1.948.514-2.826.204-.54-.166-1.174-.744-1.174h-2.52c-1.243 0-2.261-1.01-2.146-2.247.193-2.08.651-4.082 1.341-5.974C2.752 2.678 3.833 2 5.005 2h3.192a3 3 0 011.341.317l2.734 1.366A3 3 0 0013.613 4h1.292v7h-.963c-.685 0-1.258.482-1.612 1.068a4.01 4.01 0 01-2.166 1.73c-.432.143-.853.386-1.011.814-.16.432-.248.9-.248 1.388z"/>
</svg>
